!!!!SEGMENT: pl-wru--50044-muz--021_buchner-philipp-friedrich--plectrum-musicum-sonata-xxi.krn
!!!cenid: 16xx:1822
!!!COM: Buchner, Philipp Friedrich
!!!COM-rismID: pe30013776
!!!CDT:
!!!CNT:
!!!GTL: Plectrum musicum
!!!OTL: Sonata XXI
!!!PDT: 1662
!!!AGN:
!!!SMS-siglum: PL-WRu
!!!SMS-shelfmark: 50044 Muz.
!!!SMS-shelfwork: 021 G
!!!SMS-variant:
!!!SMS-altvar:
!!!NIFC-rismSourceID: 990007465
!!!NIFC-rismChildID: 990007465
!!!NIFC-islandoraID: none
!!!URL-pdf-islandora:
!!!URL-scan: https://www.bibliotekacyfrowa.pl/dlibra/doccontent?id=116 @EN{Scan on Digital Library of University of Wroclaw} @PL{Skany w portalu Biblioteka Cyfrowa Uniwersytetu Wrocławskiego}
!!!ONB-nifc: UWAGA: Violino I: s. 18, Violino II: s. 32, Viola da braccio: s. 38, Viola da gamba: s. 48, Fagotto: s. 62, Bassus: s. 77, Bassus continuus: s. 92
!!!AIN: 1 fagot 2 violn 1 violt
!!!key: G
**kern	**fba	**kern	**fba	**kern	**kern	**kern	**kern	**kern
*part7	*part7	*part6	*part6	*part5	*part4	*part3	*part2	*part1
*staff7	*	*staff6	*	*staff5	*staff4	*staff3	*staff2	*staff1
*I"BASSVS CONTINUUS.	*	*I"BASSVS	*	*I"VIOLA	*I"VIOLA DA BRACCIO.	*I"VIOLINO II.	*I"VIOLINO I.	*I"FAGOTTO
*I'bc	*	*I'b	*	*I'vla da gamba	*I'vla da braccio	*I'vl 2	*I'vl 1	*I'fag
*	*	*	*	*ICstr	*ICstr	*ICstr	*ICstr	*ICww
*	*	*	*	*Iviolt	*	*Ivioln	*Ivioln	*Ifagot
*IGcont	*	*IGcont	*	*	*	*	*	*
*clefF4	*	*clefF4	*	*clefC3	*clefC1	*clefG2	*clefG2	*clefF4
*k[]	*	*k[]	*	*k[]	*k[]	*k[]	*k[]	*k[]
*G:	*	*G:	*	*G:	*G:	*G:	*G:	*G:
*M2/2	*	*M2/2	*	*M2/2	*M2/2	*M2/2	*M2/2	*M2/2
*met(C|)	*	*met(C|)	*	*met(C|)	*met(C|)	*met(C|)	*met(C|)	*met(C|)
=1-	=1-	=1-	=1-	=1-	=1-	=1-	=1-	=1-
!LO:TX:b:t=Adagio.	!	!LO:TX:b:t=Adagio.	!	!LO:TX:b:t=Adagio.	!LO:TX:b:t=Adagio.	!LO:TX:b:t=Adagio.	!LO:TX:b:t=Adagio.	!LO:TX:b:t=Adagio.
!LO:TX:a:t=Sonata XXI.	!	!LO:TX:a:t=Sonata XXI.	!	!LO:TX:a:t=Sonata XXI.	!LO:TX:a:t=Sonata XXI.	!LO:TX:a:t=Sonata XXI.	!LO:TX:a:t=Sonata XXI.	!LO:TX:a:t=Sonata XXI.
8r	.	8r	.	8r	8r	8r	8r	8r
8GG/	.	8GG/	.	8G/	8d/	8b/	8dd\	8GG/
8GG/	.	8GG/	.	8G/	8d/	8.g/	8b/	8GG/
8D/	#	8D/	#	8A/	8d/	.	8a/	8D/
.	.	.	.	.	.	16f#X/	.	.
4.D/	#	4.D/	#	4.A/	4.d/	4.f#/	4.a/	4.D/
!LO:TX:t=P:problem:kreska pseudotaktowa	!	!LO:TX:t=P:problem:kreska pseudotaktowa	!	!	!	!	!	!
8BB/	6	8BB/	6	8G/	8d/	8b/	8dd\	8BB/
=2-	=2-	=2-	=2-	=2-	=2-	=2-	=2-	=2-
8.C/	.	8.C/	.	8.E/	8.e/	8.g/	8.cc\	8.C/
16AA/	.	16AA/	.	16E/	16e/	16a/	16cc\	16AA/
8.BB/	.	8.BB/	.	8.G/	8.d/	8.g/	8.b/	8.BB/
16GG/	.	16GG/	.	16G/	16d/	16g/	16b/	16GG/
!LO:TX:t=P:problem:kreska pseudotaktowa	!	!LO:TX:t=P:problem:kreska pseudotaktowa	!	!LO:TX:t=P:problem:kreska pseudotaktowa	!LO:TX:t=P:problem:kreska pseudotaktowa	!	!LO:TX:t=P:problem:kreska pseudotaktowa	!LO:TX:t=P:problem:kreska pseudotaktowa
2D/	#	2D/	#	2A/	2d/	2f#X/	2a/	2D/
=3-	=3-	=3-	=3-	=3-	=3-	=3-	=3-	=3-
8r	.	8r	.	8r	8r	8r	8r	8r
8DD/	#	8DD/	#	8d\	8a\	8ff#X\	8aa\	8DD/
8DD/	#	8DD/	#	8d\	8a\	8dd\	8ff#X\	8DD/
8AA/	#	8AA/	#	8e\	8a\	8cc#X\	8ee\	8AA/
4.AA/	#	4.AA/	#	4.e\	4.a\	4.cc#\	4.ee\	4.AA/
!	!	!	!	!	!	!LO:TX:t=P:problem:kreska pseudotaktowa	!	!
8FF#X/	.	8FF#X/	.	8d\	8a\	8ff#X\	8aa\	8FF#X/
=4-	=4-	=4-	=4-	=4-	=4-	=4-	=4-	=4-
8.GG/	.	8.GG/	.	8.B/	8.b\	8.dd\	8.gg\	8.GG/
16EE/	.	16EE/	.	16B/	16a\	16ee\	16gg\	16EE/
8.FF#X/	.	8.FF#X/	.	8.d\	8.a\	8.dd\	8.ff#X\	8.FF#X/
16DD/	#	16DD/	#	16d\	16a\	16dd\	16ff#\	16DD/
!LO:TX:t=P:problem:kreska pseudotaktowa	!	!LO:TX:t=P:problem:kreska pseudotaktowa	!	!	!LO:TX:t=P:problem:kreska pseudotaktowa	!	!	!LO:TX:t=P:problem:kreska pseudotaktowa
2AA/	4#r	2AA/	4#r	8e\	2a\	8cc#X\	8ee\	2AA/
.	.	.	.	8f#X\	.	8dd\	8dd\	.
!	!	!	!	!	!	!	!LO:TX:t=P:problem:kreska pseudotaktowa	!
.	.	.	.	4e\	.	8.dd\	4ee\	.
!	!	!	!	!	!	!LO:TX:t=P:problem:kreska pseudotaktowa	!	!
.	.	.	.	.	.	16cc#X\	.	.
=5-	=5-	=5-	=5-	=5-	=5-	=5-	=5-	=5-
2DD/	.	2DD/	.	2f#X\	2a\	2dd\	2dd\	2DD/
8r	.	8r	.	8r	8r	8r	8r	8r
8AA/	-	8AA/	-	8A/	8e/	8ccny\	8ee\	8AA/
8AA/	-	8AA/	-	8A/	8e/	8a/	8cc\	8AA/
8E\	#	8E\	#	8B/	8e/	8g#X/	8b/	8E\
*	*	*	*	*	*	*custos:g#	*	*
!	!	!	!	!	!	!LO:LB:g=original	!	!
=6-	=6-	=6-	=6-	=6-	=6-	=6-	=6-	=6-
4.E\	#	4.E\	#	4.B/	4.e/	4.g#X/	4.b/	4.E\
8C/	.	8C/	.	8E/	8e/	8cc\	8ee\	8C/
8.D/	#	8.D/	#	8.A/	8.f#X/	8.a/	8.dd\	8.D/
16BB/	.	16BB/	.	16G/	16d/	16b/	16dd\	16BB/
8.C/	.	8.C/	.	8.E/	8.e/	8.a/	8.cc\	8.C/
!LO:TX:t=P:problem:kreska pseudotaktowa	!	!LO:TX:t=P:problem:kreska pseudotaktowa	!	!	!	!	!	!
16AA/	.	16AA/	.	16A/	16e/	16a/	16cc\	16AA/
*	*	*	*	*custos:B	*	*	*custos:b	*
!	!	!	!	!LO:LB:g=original	!	!	!LO:LB:g=original	!
=7-	=7-	=7-	=7-	=7-	=7-	=7-	=7-	=7-
2E\	#	2E\	#	2B/	2e/	2g#X/	2b/	2E\
*	*	*	*	*	*	*	*	*custos:EE
!	!	!	!	!	!	!	!	!LO:LB:g=original
8r	.	8r	.	8r	8r	8r	8r	8r
*custos:CC	*	*custos:CC	*	*	*	*	*	*
!LO:LB:g=original	!	!LO:LB:g=original	!	!	!	!	!	!
8CC/	-	8CC/	-	8e\	8b\	8gg\	8bb\	8EE/
8CC/	-	8CC/	-	8e\	8b\	8ee\	8gg\	8EE/
!	!	!	!	!	!LO:TX:t=P:problem:kreska pseudotaktowa	!	!	!LO:TX:t=P:problem:kreska pseudotaktowa
8BB/	#	8BB/	#	8f#X\	8b\	8dd#X\	8ff#X\	8BB/
*	*	*	*	*	*custos:b	*	*	*
!	!	!	!	!	!LO:LB:g=original	!	!	!
=8-	=8-	=8-	=8-	=8-	=8-	=8-	=8-	=8-
4.BB/	#	4.BB/	#	4.f#\	4.b\	4.dd#\	4.ff#\	4.BB/
8GG/	.	8GG/	.	8e\	8b\	8gg\	8bb\	8GG/
8.AA/	.	8.AA/	.	8.e\	8.cc\	8.ee\	8.aa\	8.AA/
16FF#X/	.	16FF#X/	.	16d\	16dd\	16ff#X\	16aa\	16FF#X/
8.GG/	.	8.GG/	.	8.e\	8.b\	8.ee\	8.gg\	8.GG/
16EE/	#	16EE/	#	16e\	16b\	16ee\	16gg\	16EE/
=9-	=9-	=9-	=9-	=9-	=9-	=9-	=9-	=9-
2BB/	4#r	2BB/	4#r	8f#X\	2b\	8dd#X\	8ff#X\	2BB/
.	.	.	.	8g\	.	8ee\	8ee\	.
.	.	.	.	8f#X\	.	8.ee\	4ff#X\	.
.	.	.	.	8B/	.	.	.	.
.	.	.	.	.	.	16dd#X\	.	.
!LO:TX:t=P:problem:kreska pseudotaktowa	!	!LO:TX:t=P:problem:kreska pseudotaktowa	!	!	!	!LO:TX:t=P:problem:kreska pseudotaktowa	!LO:TX:t=P:problem:kreska pseudotaktowa	!LO:TX:t=P:problem:kreska pseudotaktowa
2EE/	.	2EE/	.	2B/	2b\	2ee\	2ee\	2EE/
=10-	=10-	=10-	=10-	=10-	=10-	=10-	=10-	=10-
8r	.	8r	.	8r	8r	8r	8r	8r
8GG/	.	8GG/	.	8G/	8d/	8b/	8dd\	8GG/
8GG/	.	8GG/	.	8G/	8d/	8gny/	8b/	8GG/
8D/	#	8D/	#	8A/	8d/	8f#X/	8a/	8D/
4.D/	#	4.D/	#	4.A/	4.d/	4.f#/	4.a/	4.D/
!LO:TX:t=P:problem:kreska pseudotaktowa	!	!LO:TX:t=P:problem:kreska pseudotaktowa	!	!	!	!	!	!LO:TX:t=P:problem:kreska pseudotaktowa
8BB/	.	8BB/	.	8G/	8d/	8b/	8dd\	8BB/
=11-	=11-	=11-	=11-	=11-	=11-	=11-	=11-	=11-
8.C/	.	8.C/	.	8.c/	8.e/	8.g/	8.cc\	8.C/
16AA/	.	16AA/	.	16c/	16e/	16a/	16cc\	16AA/
8.BB/	6	8.BB/	6	8.G/	8.d/	8.g/	8.b/	8.BB/
16GG/	#	16GG/	#	16G/	16d/	16g/	16b/	16GG/
*	*	*	*	*	*	*custos:f#	*	*
!LO:TX:t=P:problem:kreska pseudotaktowa	!	!LO:TX:t=P:problem:kreska pseudotaktowa	!	!	!	!LO:LB:g=original	!	!
2D/	4#r	2D/	4#r	8A/	2d/	8f#X/	8a/	2D/
.	.	.	.	8G/	.	8g/	8b/	.
!	!	!	!	!	!	!	!LO:TX:t=P:problem:kreska pseudotaktowa	!
.	.	.	.	4A/	.	8.g/	4a/	.
!	!	!	!	!	!	!LO:TX:t=P:problem:kreska pseudotaktowa	!	!
.	.	.	.	.	.	16f#X/	.	.
=12-	=12-	=12-	=12-	=12-	=12-	=12-	=12-	=12-
!LO:TX:b:t=Allegro.	!	!LO:TX:b:t=Allegro.	!	!	!	!LO:TX:b:t=allegro.	!	!
2GG/	.	2GG/	.	2B/	2d/	8g/	2g/	2GG/
.	.	.	.	.	.	8ddny\	.	.
.	.	.	.	.	.	8dd\	.	.
.	.	.	.	.	.	8cc\	.	.
2BB/	.	2BB/	.	2r	2r	8b/	8r	2r
!	!	!	!	!	!	!	!LO:TX:b:t=allegro.	!
.	.	.	.	.	.	8g/	8gg\	.
.	.	.	.	.	.	8b/	8gg\	.
!	!	!	!	!	!	!LO:TX:t=P:problem:kreska pseudotaktowa	!	!
.	.	.	.	.	.	8dd\	8gg\	.
=13-	=13-	=13-	=13-	=13-	=13-	=13-	=13-	=13-
!	!	!	!	!	!LO:TX:b:t=Allegro.	!	!	!LO:TX:b:t=27
2C/	.	2C/	.	1r	0r	16cc\	8ee\	0r
.	.	.	.	.	.	16ee\	.	.
.	.	.	.	.	.	16ee\	8cc\	.
.	.	.	.	.	.	16dd\	.	.
.	.	.	.	.	.	8cc\	8ee\	.
.	.	.	.	.	.	16dd\	8gg\	.
.	.	.	.	.	.	16ee\	.	.
*	*	*	*	*	*	*	*custos:ff	*
!	!	!	!	!	!	!	!LO:LB:g=original	!
2FFny/	.	2FFny/	.	.	.	4a/	16ffny\	.
.	.	.	.	.	.	.	16aa\	.
.	.	.	.	.	.	.	16aa\	.
.	.	.	.	.	.	.	16gg\	.
!	!	!	!	!	!	!LO:TX:t=P:problem:kreska pseudotaktowa	!	!
.	.	.	.	.	.	4r	8ff\	.
.	.	.	.	.	.	.	16gg\	.
!	!	!	!	!	!	!	!LO:TX:t=P:problem:kreska pseudotaktowa	!
.	.	.	.	.	.	.	16aa\	.
=14-	=14-	=14-	=14-	=14-	=14-	=14-	=14-	=14-
4C/	.	4C/	.	2r	.	16r	16ee\	.
.	.	.	.	.	.	16ee\	16gg\	.
.	.	.	.	.	.	16ee\	16gg\	.
.	.	.	.	.	.	16dd\	16ff\	.
4E\	.	4E\	.	.	.	8cc\	8ee\	.
.	.	.	.	.	.	16dd\	16ff\	.
.	.	.	.	.	.	16ee\	16gg\	.
2G\	3:4:3	2G\	3:4:3	8r	.	8b/	8dd\	.
!	!	!	!	!LO:TX:b:t=allegro.	!	!	!	!
.	.	.	.	8g\	.	8cc\	8ee\	.
!	!	!	!	!	!	!	!LO:TX:t=P:problem:kreska pseudotaktowa	!
.	.	.	.	8g\	.	8cc\	4dd\	.
.	.	.	.	8g\	.	8b/	.	.
=15-	=15-	=15-	=15-	=15-	=15-	=15-	=15-	=15-
2C/	.	2C/	.	8e\	8r	2cc\	2cc\	0r
.	.	.	.	8c/	8cc\	.	.	.
.	.	.	.	8e\	8cc\	.	.	.
.	.	.	.	8g\	8cc\	.	.	.
*	*	*	*	*custos:f	*	*	*	*
!	!	!	!	!LO:LB:g=original	!	!	!	!
2FF/	.	2FF/	.	16fny\	8a\	2r	2r	.
.	.	.	.	16a\	.	.	.	.
.	.	.	.	16a\	8fny/	.	.	.
.	.	.	.	16g\	.	.	.	.
.	.	.	.	8f\	8a\	.	.	.
.	.	.	.	16g\	8cc\	.	.	.
!	!	!	!	!LO:TX:t=P:problem:kreska pseudotaktowa	!	!	!	!
.	.	.	.	16a\	.	.	.	.
=16-	=16-	=16-	=16-	=16-	=16-	=16-	=16-	=16-
2GG/	.	2GG/	.	16g\	16b\	2r	1r	.
.	.	.	.	16b\	16dd\	.	.	.
.	.	.	.	16b\	16dd\	.	.	.
.	.	.	.	16a\	16cc\	.	.	.
.	.	.	.	8g\	8b\	.	.	.
.	.	.	.	16a\	16cc\	.	.	.
.	.	.	.	16b\	16dd\	.	.	.
!LO:TX:t=P:problem:kreska pseudotaktowa	!	!LO:TX:t=P:problem:kreska pseudotaktowa	!	!	!	!	!	!
2D/	#:4#r	2D/	#:4#r	8f#X\	8a\	8r	.	.
.	.	.	.	8g\	8b\	8dd\	.	.
.	.	.	.	8g\	4a\	8dd\	.	.
.	.	.	.	8f#X\	.	8dd\	.	.
*	*	*	*	*	*custos:g	*	*	*
!	!	!	!	!	!LO:PB:g=original	!	!	!
=17-	=17-	=17-	=17-	=17-	=17-	=17-	=17-	=17-
2GG/	.	2GG/	.	2g\	2g/	8b/	8r	0r
.	.	.	.	.	.	8g/	8gg\	.
.	.	.	.	.	.	8b/	8gg\	.
.	.	.	.	.	.	8dd\	8gg\	.
*	*	*	*	*	*	*custos:cc	*	*
!	!	!	!	!	!	!LO:LB:g=original	!	!
2C/	.	2C/	.	2r	2r	4cc\	8ee\	.
.	.	.	.	.	.	.	8cc\	.
!	!	!	!	!	!	!LO:TX:t=P:problem:kreska pseudotaktowa	!	!
.	.	.	.	.	.	4r	8ee\	.
.	.	.	.	.	.	.	8gg\	.
=18-	=18-	=18-	=18-	=18-	=18-	=18-	=18-	=18-
2F\	.	2F\	.	1r	0r	16r	4ff\	.
.	.	.	.	.	.	16cc\	.	.
.	.	.	.	.	.	16cc\	.	.
.	.	.	.	.	.	16b/	.	.
.	.	.	.	.	.	8a/	4r	.
.	.	.	.	.	.	16b/	.	.
.	.	.	.	.	.	16cc\	.	.
2E\	.	2E\	.	.	.	4g/	16r	.
.	.	.	.	.	.	.	16gg\	.
.	.	.	.	.	.	.	16gg\	.
.	.	.	.	.	.	.	16ff\	.
!	!	!	!	!	!	!LO:TX:t=P:problem:kreska pseudotaktowa	!	!
.	.	.	.	.	.	4r	8ee\	.
.	.	.	.	.	.	.	16ff\	.
!	!	!	!	!	!	!	!LO:TX:t=P:problem:kreska pseudotaktowa	!
.	.	.	.	.	.	.	16gg\	.
=19-	=19-	=19-	=19-	=19-	=19-	=19-	=19-	=19-
2F\	.	2F\	.	2r	.	16r	16cc\	0r
.	.	.	.	.	.	16ffny\	16aa\	.
.	.	.	.	.	.	16ff\	16aa\	.
.	.	.	.	.	.	16ee\	16gg\	.
.	.	.	.	.	.	8dd\	8ff\	.
.	.	.	.	.	.	16ee\	16gg\	.
.	.	.	.	.	.	16ff\	16aa\	.
*	*	*	*	*	*	*	*custos:dd	*
!	!	!	!	!	!	!	!LO:LB:g=original	!
2G\	3:4:3	2G\	3:4:3	8r	.	8b/	8dd\	.
.	.	.	.	8g\	.	8cc\	8ee\	.
.	.	.	.	8g\	.	8cc\	4dd\	.
!	!	!	!	!	!	!LO:TX:t=P:problem:kreska pseudotaktowa	!	!
.	.	.	.	8g\	.	8b/	.	.
*custos:C	*	*custos:C	*	*	*	*	*	*
!LO:LB:g=original	!	!LO:LB:g=original	!	!	!	!	!	!
=20-	=20-	=20-	=20-	=20-	=20-	=20-	=20-	=20-
2C/	.	2C/	.	8e\	1r	16cc\	2cc\	.
.	.	.	.	.	.	16ee\	.	.
.	.	.	.	8c/	.	16ee\	.	.
.	.	.	.	.	.	16dd\	.	.
.	.	.	.	8e\	.	8cc\	.	.
.	.	.	.	8g\	.	16dd\	.	.
.	.	.	.	.	.	16ee\	.	.
2F\	.	2F\	.	8fny\	.	4a/	2r	.
.	.	.	.	8a\	.	.	.	.
.	.	.	.	8a\	.	4r	.	.
.	.	.	.	8a\	.	.	.	.
=21-	=21-	=21-	=21-	=21-	=21-	=21-	=21-	=21-
2D/	#	2D/	#	8f#X\	8r	0r	1r	0r
.	.	.	.	8d\	8dd\	.	.	.
.	.	.	.	8f#X\	8dd\	.	.	.
.	.	.	.	8a\	8dd\	.	.	.
2G\	.	2G\	.	2g\	8b\	.	.	.
.	.	.	.	.	8g/	.	.	.
.	.	.	.	.	8b\	.	.	.
.	.	.	.	.	8dd\	.	.	.
*	*	*	*	*custos:f#	*	*	*	*
!	!	!	!	!LO:LB:g=original	!	!	!	!
=22-	=22-	=22-	=22-	=22-	=22-	=22-	=22-	=22-
2C/	.	2C/	.	1r	8cc\	.	2r	.
.	.	.	.	.	8ee\	.	.	.
.	.	.	.	.	8ee\	.	.	.
.	.	.	.	.	8ee\	.	.	.
2AA/	#	2AA/	#	.	8cc#X\	.	8r	.
.	.	.	.	.	8a\	.	8aa\	.
.	.	.	.	.	8cc#X\	.	8aa\	.
.	.	.	.	.	8ee\	.	8aa\	.
=23-	=23-	=23-	=23-	=23-	=23-	=23-	=23-	=23-
2D/	#	2D/	#	16r	4dd\	2r	8ff#X\	0r
.	.	.	.	16f#X\	.	.	.	.
.	.	.	.	16f#\	.	.	8dd\	.
.	.	.	.	16e\	.	.	.	.
.	.	.	.	8d\	4r	.	8ff#X\	.
.	.	.	.	16e\	.	.	8aa\	.
.	.	.	.	16f#\	.	.	.	.
2GG/	.	2GG/	.	4B/	16r	16r	4gg\	.
.	.	.	.	.	16b\	16dd\	.	.
.	.	.	.	.	16b\	16dd\	.	.
.	.	.	.	.	16a\	16cc\	.	.
.	.	.	.	4r	8g/	8b/	4r	.
.	.	.	.	.	16a\	16cc\	.	.
!	!	!	!	!	!	!LO:TX:t=P:problem:kreska pseudotaktowa	!	!
.	.	.	.	.	16b\	16dd\	.	.
=24-	=24-	=24-	=24-	=24-	=24-	=24-	=24-	=24-
2E\	-	2E\	-	1r	4e/	16g/	16r	.
.	.	.	.	.	.	16ee\	16gg\	.
.	.	.	.	.	.	16ee\	16gg\	.
.	.	.	.	.	.	16dd\	16ff#\	.
*	*	*	*	*	*	*custos:cc	*	*
!	!	!	!	!	!	!LO:LB:g=original	!	!
.	.	.	.	.	4r	8cc\	8ee\	.
.	.	.	.	.	.	16dd\	16ff#\	.
.	.	.	.	.	.	16ee\	16gg\	.
!	!	!	!	!	!LO:TX:t=P:problem:kreska pseudotaktowa	!	!	!
4A\	.	4A\	.	.	2r	16a/	16cc\	.
.	.	.	.	.	.	16cc\	16ee\	.
.	.	.	.	.	.	16cc\	16ee\	.
.	.	.	.	.	.	16b/	16dd\	.
4AA/	.	4AA/	.	.	.	8a/	8cc\	.
.	.	.	.	.	.	16b/	16dd\	.
.	.	.	.	.	.	16cc\	16ee\	.
=25-	=25-	=25-	=25-	=25-	=25-	=25-	=25-	=25-
2E\	#:4#r	2E\	#:4#r	8r	2r	8g#X/	8b/	0r
.	.	.	.	8e\	.	8a/	8cc\	.
.	.	.	.	8e\	.	8a/	4b/	.
.	.	.	.	8e\	.	8g#X/	.	.
2AA/	#	2AA/	#	8c#X/	8r	2a/	2a/	.
.	.	.	.	8A/	8a\	.	.	.
.	.	.	.	8c#X/	8a\	.	.	.
!	!	!	!	!LO:TX:t=P:problem:kreska pseudotaktowa	!	!	!	!
.	.	.	.	8e\	8a\	.	.	.
=26-	=26-	=26-	=26-	=26-	=26-	=26-	=26-	=26-
2D/	#	2D/	#	16d\	8f#X/	0r	0r	.
.	.	.	.	16f#X\	.	.	.	.
.	.	.	.	16f#\	8d/	.	.	.
.	.	.	.	16e\	.	.	.	.
.	.	.	.	8d\	8f#X/	.	.	.
.	.	.	.	16e\	8a\	.	.	.
.	.	.	.	16f#\	.	.	.	.
*	*	*	*	*	*custos:g	*	*	*
!	!	!	!	!	!LO:LB:g=original	!	!	!
4GG/	.	4GG/	.	4B/	16g/	.	.	.
.	.	.	.	.	16b\	.	.	.
.	.	.	.	.	16b\	.	.	.
.	.	.	.	.	16a\	.	.	.
!LO:TX:t=P:problem:kreska pseudotaktowa	!	!LO:TX:t=P:problem:kreska pseudotaktowa	!	!LO:TX:t=P:problem:kreska pseudotaktowa	!	!	!	!
4E\	-	4E\	-	4r	8g/	.	.	.
.	.	.	.	.	16a\	.	.	.
!	!	!	!	!	!LO:TX:t=P:problem:kreska pseudotaktowa	!	!	!
.	.	.	.	.	16b\	.	.	.
=27-	=27-	=27-	=27-	=27-	=27-	=27-	=27-	=27-
4D/	5:6 #	4D/	5:6 #	16r	16f#X/	.	.	0r
.	.	.	.	16b\	16dd\	.	.	.
.	.	.	.	16b\	16dd\	.	.	.
.	.	.	.	16a\	16ccny\	.	.	.
4E\	-	4E\	-	8g\	8b\	.	.	.
.	.	.	.	16a\	16cc\	.	.	.
.	.	.	.	16b\	16dd\	.	.	.
*	*	*	*	*custos:f#	*	*	*	*
!	!	!	!	!LO:LB:g=original	!	!	!	!
2F#X\	6#r	2F#X\	6#r	16f#X\	16a\	.	.	.
.	.	.	.	16f#\	16a\	.	.	.
.	.	.	.	16f#\	16a\	.	.	.
.	.	.	.	16e\	16g/	.	.	.
.	.	.	.	8d\	8f#X/	.	.	.
.	.	.	.	16e\	16g\	.	.	.
!	!	!	!	!	!LO:TX:t=P:problem:kreska pseudotaktowa	!	!	!
.	.	.	.	16f#X\	16a\	.	.	.
=28-	=28-	=28-	=28-	=28-	=28-	=28-	=28-	=28-
!	!	!	!	!LO:N:vis=4	!	!	!	!
2A\	4#r	2A\	4#r	8c#X/	8e/	2r	8r	.
.	.	.	.	8d\	8f#X/	.	8aa\	.
!	!	!	!	!LO:N:vis=8	!	!	!	!
.	.	.	.	8.d\	4e/	.	8aa\	.
.	.	.	.	.	.	.	8aa\	.
!	!	!	!	!LO:N:vis=8	!	!	!	!
.	.	.	.	16c#X/	.	.	.	.
*	*	*	*	*	*	*	*custos:ff#	*
!LO:TX:t=P:problem:kreska pseudotaktowa	!	!LO:TX:t=P:problem:kreska pseudotaktowa	!	!LO:TX:t=P:problem:kreska pseudotaktowa	!	!	!LO:LB:g=original	!
2D/	#	2D/	#	2d\	2d/	8r	8ff#X\	.
.	.	.	.	.	.	8dd\	8dd\	.
.	.	.	.	.	.	8dd\	8ff#X\	.
.	.	.	.	.	.	8dd\	8aa\	.
=29-	=29-	=29-	=29-	=29-	=29-	=29-	=29-	=29-
2GG/	.	2GG/	.	1r	8r	8b/	4gg\	0r
.	.	.	.	.	8g/	8gny/	.	.
.	.	.	.	.	8g/	8b/	4r	.
.	.	.	.	.	8g/	8dd\	.	.
2C/	.	2C/	.	.	8e/	16cc\	16r	.
.	.	.	.	.	.	16ee\	16gg\	.
.	.	.	.	.	8c/	16ee\	16gg\	.
.	.	.	.	.	.	16dd\	16ffny\	.
.	.	.	.	.	8e/	8cc\	8ee\	.
.	.	.	.	.	8g/	16dd\	16ff\	.
.	.	.	.	.	.	16ee\	16gg\	.
=30-	=30-	=30-	=30-	=30-	=30-	=30-	=30-	=30-
2D/	#	2D/	#	8r	16f#X/	4a/	16dd\	.
.	.	.	.	.	16a\	.	16ff#X\	.
.	.	.	.	8d\	16a\	.	16ff#\	.
.	.	.	.	.	16g/	.	16ee\	.
*	*	*	*	*	*custos:f#	*	*	*
!	!	!	!	!	!LO:LB:g=original	!	!	!
.	.	.	.	8d\	8f#X/	4r	4dd\	.
.	.	.	.	8d\	16g/	.	.	.
.	.	.	.	.	16a\	.	.	.
!	!	!	!	!	!	!LO:TX:t=P:problem:kreska pseudotaktowa	!LO:TX:t=P:problem:kreska pseudotaktowa	!
2GG/	.	2GG/	.	8B/	16g/	2r	2r	.
.	.	.	.	.	16b\	.	.	.
.	.	.	.	8G/	16b\	.	.	.
.	.	.	.	.	16a\	.	.	.
.	.	.	.	8B/	8g/	.	.	.
.	.	.	.	8d\	16a\	.	.	.
!	!	!	!	!	!LO:TX:t=P:problem:kreska pseudotaktowa	!	!	!
.	.	.	.	.	16b\	.	.	.
=31-	=31-	=31-	=31-	=31-	=31-	=31-	=31-	=31-
2C/	.	2C/	.	4cny/	4e/	16r	16r	0r
.	.	.	.	.	.	16cc\	16ee\	.
.	.	.	.	.	.	16cc\	16ee\	.
.	.	.	.	.	.	16b/	16dd\	.
.	.	.	.	4r	4r	8a/	8cc\	.
.	.	.	.	.	.	16b/	16dd\	.
.	.	.	.	.	.	16cc\	16ee\	.
*	*	*	*	*	*	*custos:f#	*	*
!	!	!	!	!LO:TX:t=P:problem:kreska pseudotaktowa	!	!LO:LB:g=original	!	!
2D/	#:4#r	2D/	#:4#r	2r	2r	8f#X/	8a/	.
.	.	.	.	.	.	8g/	8b/	.
.	.	.	.	.	.	8.g/	4a/	.
.	.	.	.	.	.	16f#X/	.	.
=32-	=32-	=32-	=32-	=32-	=32-	=32-	=32-	=32-
2GG/	5:6	2GG/	5:6	16r	16r	4g/	4g/	.
.	.	.	.	16g\	16b\	.	.	.
.	.	.	.	16g\	16b\	.	.	.
.	.	.	.	16fny\	16a\	.	.	.
.	.	.	.	8e\	8g/	4r	4r	.
.	.	.	.	16f\	16a\	.	.	.
.	.	.	.	16g\	16b\	.	.	.
!LO:TX:t=P:problem:kreska pseudotaktowa	!	!LO:TX:t=P:problem:kreska pseudotaktowa	!	!	!	!LO:TX:t=P:problem:kreska pseudotaktowa	!LO:TX:t=P:problem:kreska pseudotaktowa	!
2AA/	#:4#r	2AA/	#:4#r	8c#X/	8e/	2r	2r	.
.	.	.	.	8d\	8f#X/	.	.	.
!	!	!	!	!	!LO:TX:t=P:problem:kreska pseudotaktowa	!	!	!
.	.	.	.	8.d\	4e/	.	.	.
!	!	!	!	!LO:TX:t=P:problem:kreska pseudotaktowa	!	!	!	!
.	.	.	.	16c#X/	.	.	.	.
*	*	*	*	*custos:d	*	*	*	*
!	!	!	!	!LO:PB:g=original	!	!	!	!
=33-	=33-	=33-	=33-	=33-	=33-	=33-	=33-	=33-
8D/	#	8D/	#	4d\	4d/	8ff#X\	8aa\	0r
8GG/	.	8GG/	.	.	.	8gg\	8bb\	.
4D/	#	4D/	#	4r	4r	4ff#X\	4aa\	.
8G\	.	8G\	.	8b\	8dd\	4gg\	4gg\	.
8C/	.	8C/	.	8cc\	8ee\	.	.	.
!	!	!	!	!	!LO:TX:t=P:problem:kreska pseudotaktowa	!	!	!
4G\	.	4G\	.	4b\	4dd\	4r	4r	.
=34-	=34-	=34-	=34-	=34-	=34-	=34-	=34-	=34-
8C/	.	8C/	.	4cc\	4cc\	8ffny\	8gg\	.
8FF/	.	8FF/	.	.	.	8ff\	8aa\	.
4C/	.	4C/	.	4r	4r	4ee\	4gg\	.
*custos:F	*	*custos:F	*	*	*	*	*	*
!LO:LB:g=original	!	!LO:LB:g=original	!	!	!	!	!	!
!LO:TX:t=P:problem:kreska pseudotaktowa	!	!LO:TX:t=P:problem:kreska pseudotaktowa	!	!LO:TX:t=P:problem:kreska pseudotaktowa	!	!	!	!
2Fny\	.	2Fny\	.	2r	8r	4ff\	4ffny\	.
.	.	.	.	.	8a\	.	.	.
.	.	.	.	.	8a\	4r	4r	.
.	.	.	.	.	8a\	.	.	.
*	*	*	*	*	*	*	*custos:gg	*
!	!	!	!	!	!	!	!LO:PB:g=original	!
=35-	=35-	=35-	=35-	=35-	=35-	=35-	=35-	=35-
2D/	#	2D/	#	16r	8f#X/	8r	2r	0r
.	.	.	.	16f\	.	.	.	.
.	.	.	.	16f\	8d/	8dd\	.	.
.	.	.	.	16e\	.	.	.	.
.	.	.	.	8d\	8f#X/	8dd\	.	.
.	.	.	.	16e\	8a\	8dd\	.	.
.	.	.	.	16f#X\	.	.	.	.
2GG/	.	2GG/	.	4g\	4g/	8b/	8r	.
.	.	.	.	.	.	8g/	8gg\	.
.	.	.	.	4r	4r	8b/	8gg\	.
!	!	!	!	!	!	!LO:TX:t=P:problem:kreska pseudotaktowa	!	!
.	.	.	.	.	.	8dd\	8gg\	.
*	*	*	*	*	*custos:f#	*	*	*
!	!	!	!	!	!LO:LB:g=original	!	!	!
=36-	=36-	=36-	=36-	=36-	=36-	=36-	=36-	=36-
!	!	!	!	!	!LO:N:vis=2?	!	!	!
2C/	.	2C/	.	8r	2.r	16cc\	8ee\	.
.	.	.	.	.	.	16ee\	.	.
.	.	.	.	8cny/	.	16ee\	8cc\	.
.	.	.	.	.	.	16dd\	.	.
.	.	.	.	8c/	.	8cc\	8ee\	.
.	.	.	.	8c/	.	16dd\	8gg\	.
.	.	.	.	.	.	16ee\	.	.
2D/	#	2D/	#	8A/	.	4dd\	4ff#X\	.
.	.	.	.	8F#X/	.	.	.	.
!	!	!	!	!	!	!	!LO:TX:t=P:problem:kreska pseudotaktowa	!
.	.	.	.	8A/	16r	4r	4r	.
.	.	.	.	.	16f#X/	.	.	.
!	!	!	!	!LO:TX:t=P:problem:kreska pseudotaktowa	!	!	!	!
.	.	.	.	8c/	16f#/	.	.	.
.	.	.	.	.	16e/	.	.	.
=37-	=37-	=37-	=37-	=37-	=37-	=37-	=37-	=37-
2GG/	.	2GG/	.	16B/	8d/	2r	16r	0r
.	.	.	.	16d\	.	.	16bb\	.
.	.	.	.	16d\	16e/	.	16bb\	.
.	.	.	.	16c/	16f#X/	.	16aa\	.
!	!	!	!	!	!LO:TX:t=P:problem:kreska pseudotaktowa	!	!	!
.	.	.	.	8B/	4g/	.	8gg\	.
.	.	.	.	16c/	.	.	16aa\	.
.	.	.	.	16d\	.	.	16bb\	.
2C/	5:6	2C/	5:6	8G/	16r	16r	8ee\	.
.	.	.	.	.	16cc\	16ee\	.	.
.	.	.	.	8c/	16cc\	16ee\	8gg\	.
.	.	.	.	.	16b\	16dd\	.	.
.	.	.	.	8e\	8a\	8cc\	2ccc\	.
.	.	.	.	8e\	16b\	16dd\	.	.
.	.	.	.	.	16cc\	16ee\	.	.
*	*	*	*	*	*	*custos:a	*	*
!	!	!	!	!	!	!LO:LB:g=original	!	!
=38-	=38-	=38-	=38-	=38-	=38-	=38-	=38-	=38-
1D	#:4#r	1D	#:4#r	1d	4f#X/	4a/	.	.
.	.	.	.	.	2g/	8b/	4bb\	.
.	.	.	.	.	.	8cc\	.	.
.	.	.	.	.	.	2dd\	2aa\	.
.	.	.	.	.	4f#X/	.	.	.
=39-	=39-	=39-	=39-	=39-	=39-	=39-	=39-	=39-
!LO:TX:t=P:problem:kreska pseudotaktowa	!	!LO:TX:t=P:problem:kreska pseudotaktowa	!	!LO:TX:t=P:problem:kreska pseudotaktowa	!LO:TX:t=P:problem:kreska pseudotaktowa	!LO:TX:t=P:problem:kreska pseudotaktowa	!LO:TX:t=P:problem:kreska pseudotaktowa	!LO:TX:t=P:problem:kreska pseudotaktowa
1GG	.	1GG	.	1B	1g	1dd	1gg	1r
=40-	=40-	=40-	=40-	=40-	=40-	=40-	=40-	=40-
!	!	!	!	!	!	!	!	!LO:TX:b:t=Adagio.
!LO:TX:b:t=adagio.	!	!LO:TX:b:t=adagio.	!	!LO:TX:b:t=adagio.	!LO:TX:b:t=adagio.	!LO:TX:b:t=Adagio.	!	!
4GG/	.	4GG/	.	4B/	4g/	4b/	4dd\	4GG/
!	!	!	!	!	!	!	!LO:TX:b:t=adagio	!
4AA/	.	4AA/	.	4c/	4e/	4a/	4cc\	4AA/
4BB/	6	4BB/	6	4G/	4d/	8g/	8b/	4BB/
.	.	.	.	.	.	4b/	4g/	.
!	!	!	!	!	!	!	!	!LO:TX:t=P:problem:zwyczajnie bB dny custos powinien by AA
4E\	.	4E\	.	4G/	4e/	.	.	4E\
.	.	.	.	.	.	8g/	4ee\	.
*	*	*	*	*	*	*	*	*custos:AA
!	!	!	!	!	!	!	!	!LO:LB:g=original
=41-	=41-	=41-	=41-	=41-	=41-	=41-	=41-	=41-
4AA/	.	4AA/	.	4A/	4c/	4.cc\	.	4AA/
.	.	.	.	.	.	.	4a/	.
4D/	7:6	4D/	7:6	4A/	4d/	.	.	4D/
.	.	.	.	.	.	8f#X/	4dd\	.
4GG/	.	4GG/	.	4G/	4B/	4.b/	.	4GG/
.	.	.	.	.	.	.	4g/	.
4C/	7:6	4C/	7:6	4G/	4c/	.	.	4C/
.	.	.	.	.	.	8e/	4cc\	.
=42-	=42-	=42-	=42-	=42-	=42-	=42-	=42-	=42-
4D/	7	4D/	7	4d\	4A/	4f#X/	.	4D/
.	.	.	.	.	.	.	8b-X/	.
4GG/	5 4-	4GG/	5 4-	4d\	8.B-X/	2g/	8b-/	4GG/
.	.	.	.	.	.	.	8a/	.
.	.	.	.	.	16c/	.	.	.
2DD/	#	2DD/	#	8d\	2d/	.	2a/	2DD/
.	.	.	.	16c\	.	.	.	.
.	.	.	.	16B/	.	.	.	.
.	.	.	.	4A/	.	4f#X/	.	.
=43-	=43-	=43-	=43-	=43-	=43-	=43-	=43-	=43-
1GG;	.	1GG;	.	1B	1d	1g	1g	1GG
*	*	*	*	*	*custos:cc	*	*	*
!	!	!	!	!	!LO:LB:g=original	!	!	!
=-	=-	=-	=-	=-	=-	=-	=-	=-
*M3/2	*	*M3/2	*	*M3/2	*M3/2	*M3/2	*M3/2	*M3/2
!	!	!	!	!	!	!	!	!LO:TX:b:t=55
!LO:TX:b:t=allegro.	!	!LO:TX:b:t=allegro.	!	!LO:TX:b:t=allegro.	!	!LO:TX:b:t=allegro.	!LO:TX:b:t=allegro.	!
1.GG	.	1.GG	.	00.r	00.r	2dd\	1.r	0.r
.	.	.	.	.	.	2dd\	.	.
.	.	.	.	.	.	2dd\	.	.
=44-	=44-	=44-	=44-	=44-	=44-	=44-	=44-	=44-
1.BB	.	1.BB	.	.	.	4b/	2gg\	.
.	.	.	.	.	.	4g/	.	.
.	.	.	.	.	.	4b/	2gg\	.
.	.	.	.	.	.	4g/	.	.
.	.	.	.	.	.	4b/	2gg\	.
.	.	.	.	.	.	4dd\	.	.
*	*	*	*	*	*	*	*custos:ee	*
!	!	!	!	!	!	!	!LO:LB:g=original	!
=45-	=45-	=45-	=45-	=45-	=45-	=45-	=45-	=45-
1.C	.	1.C	.	.	.	4cc\	4ee\	0.r
.	.	.	.	.	.	4ee\	4cc\	.
.	.	.	.	.	.	4.ee\	4ee\	.
.	.	.	.	.	.	.	4cc\	.
.	.	.	.	.	.	8dd\	.	.
.	.	.	.	.	.	8cc\	4ee\	.
.	.	.	.	.	.	8dd\	.	.
!	!	!	!	!	!	!	!LO:TX:t=P:problem:kreska pseudotaktowa	!
.	.	.	.	.	.	4ee\	4gg\	.
*	*	*	*	*	*	*custos:a	*	*
!	!	!	!	!	!	!LO:LB:g=original	!	!
=46-	=46-	=46-	=46-	=46-	=46-	=46-	=46-	=46-
!LO:TX:t=P:problem:kreska pseudotaktowa	!	!LO:TX:t=P:problem:kreska pseudotaktowa	!	!	!	!	!	!
1.FF	.	1.FF	.	.	.	1a	4ffny\	.
.	.	.	.	.	.	.	4aa\	.
.	.	.	.	.	.	.	4.aa\	.
.	.	.	.	.	.	.	8gg\	.
!	!	!	!	!	!	!LO:TX:t=P:problem:kreska pseudotaktowa	!	!
.	.	.	.	.	.	2r	8ff\	.
.	.	.	.	.	.	.	8gg\	.
.	.	.	.	.	.	.	4aa\	.
=47-	=47-	=47-	=47-	=47-	=47-	=47-	=47-	=47-
1C	.	1C	.	1.r	0.r	4r	4ee\	0.r
.	.	.	.	.	.	4ee\	4gg\	.
.	.	.	.	.	.	4.ee\	4.gg\	.
.	.	.	.	.	.	8dd\	8ff\	.
2E\	.	2E\	.	.	.	8cc\	8ee\	.
.	.	.	.	.	.	8dd\	8ff\	.
.	.	.	.	.	.	4ee\	4gg\	.
=48-	=48-	=48-	=48-	=48-	=48-	=48-	=48-	=48-
1.G	.	1.G	.	2g\	.	8b/	8dd\	.
.	.	.	.	.	.	8a/	8cc\	.
.	.	.	.	.	.	8b/	8dd\	.
.	.	.	.	.	.	8cc\	8ee\	.
.	.	.	.	2g\	.	4b/	4dd\	.
.	.	.	.	.	.	4cc\	4ee\	.
.	.	.	.	2g\	.	2b/	2dd\	.
=49-	=49-	=49-	=49-	=49-	=49-	=49-	=49-	=49-
!	!	!	!	!	!LO:TX:b:t=allegro	!	!	!
1.C	.	1.C	.	4e\	2cc\	1cc	1cc	0.r
.	.	.	.	4c/	.	.	.	.
.	.	.	.	4e\	2cc\	.	.	.
.	.	.	.	4c/	.	.	.	.
.	.	.	.	4e\	2cc\	2r	2r	.
.	.	.	.	4g\	.	.	.	.
=50-	=50-	=50-	=50-	=50-	=50-	=50-	=50-	=50-
1.FF	.	1.FF	.	4fny\	4a\	0.r	0.r	.
.	.	.	.	4a\	4fny/	.	.	.
.	.	.	.	4.a\	4a\	.	.	.
.	.	.	.	.	4f/	.	.	.
.	.	.	.	8g\	.	.	.	.
.	.	.	.	8f\	4a\	.	.	.
.	.	.	.	8g\	.	.	.	.
.	.	.	.	4a\	4cc\	.	.	.
=51-	=51-	=51-	=51-	=51-	=51-	=51-	=51-	=51-
1.GG	.	1.GG	.	4g\	4b\	.	.	0.r
.	.	.	.	4b\	4dd\	.	.	.
.	.	.	.	4b\	4.dd\	.	.	.
.	.	.	.	4a\	.	.	.	.
.	.	.	.	.	8cc\	.	.	.
.	.	.	.	8g\	8b\	.	.	.
.	.	.	.	8a\	8cc\	.	.	.
!	!	!	!	!	!LO:TX:t=P:problem:kreska pseudotaktowa	!	!	!
.	.	.	.	4b\	4dd\	.	.	.
=52-	=52-	=52-	=52-	=52-	=52-	=52-	=52-	=52-
1.D	#	1.D	#	8f#X\	8a\	2dd\	1.r	.
.	.	.	.	8e\	8g/	.	.	.
.	.	.	.	8f#\	8a\	.	.	.
.	.	.	.	8g\	8b\	.	.	.
.	.	.	.	4f#X\	4a\	2dd\	.	.
.	.	.	.	4g\	4b\	.	.	.
*	*	*	*	*custos:f#	*	*	*	*
!	!	!	!	!LO:LB:g=original	!	!	!	!
.	.	.	.	2f#X\	2a\	2dd\	.	.
*custos:GG	*	*custos:GG	*	*	*	*	*	*
!LO:LB:g=original	!	!LO:LB:g=original	!	!	!	!	!	!
=53-	=53-	=53-	=53-	=53-	=53-	=53-	=53-	=53-
1.GG	.	1.GG	.	1g	1g	4b/	2gg\	0.r
.	.	.	.	.	.	4g/	.	.
.	.	.	.	.	.	4b/	2gg\	.
.	.	.	.	.	.	4g/	.	.
.	.	.	.	2r	2r	4b/	2gg\	.
.	.	.	.	.	.	4dd\	.	.
=54-	=54-	=54-	=54-	=54-	=54-	=54-	=54-	=54-
1.C	.	1.C	.	00.r	00.r	1cc	4ee\	.
.	.	.	.	.	.	.	4cc\	.
.	.	.	.	.	.	.	4ee\	.
.	.	.	.	.	.	.	4cc\	.
!	!	!	!	!	!	!LO:TX:t=P:problem:kreska pseudotaktowa	!	!
.	.	.	.	.	.	2r	4ee\	.
.	.	.	.	.	.	.	4gg\	.
=55-	=55-	=55-	=55-	=55-	=55-	=55-	=55-	=55-
1.F	.	1.F	.	.	.	4r	1ff	0.r
.	.	.	.	.	.	4cc\	.	.
.	.	.	.	.	.	4.cc\	.	.
.	.	.	.	.	.	8b/	.	.
.	.	.	.	.	.	8a/	2r	.
.	.	.	.	.	.	8b/	.	.
.	.	.	.	.	.	4cc\	.	.
*	*	*	*	*	*	*	*custos:gg	*
!	!	!	!	!	!	!	!LO:LB:g=original	!
=56-	=56-	=56-	=56-	=56-	=56-	=56-	=56-	=56-
1.E	.	1.E	.	.	.	1g	4r	.
.	.	.	.	.	.	.	4gg\	.
.	.	.	.	.	.	.	4.gg\	.
.	.	.	.	.	.	.	8ff\	.
.	.	.	.	.	.	2r	8ee\	.
.	.	.	.	.	.	.	8ff\	.
.	.	.	.	.	.	.	4gg\	.
=57-	=57-	=57-	=57-	=57-	=57-	=57-	=57-	=57-
1.F	5:6	1.F	5:6	.	.	4r	4cc\	0.r
.	.	.	.	.	.	4ff\	4aa\	.
.	.	.	.	.	.	4.ff\	4.aa\	.
.	.	.	.	.	.	8ee\	8gg\	.
.	.	.	.	.	.	8dd\	8ff\	.
.	.	.	.	.	.	8ee\	8gg\	.
.	.	.	.	.	.	4ff\	4aa\	.
*	*	*	*	*	*	*custos:b	*	*
!	!	!	!	!	!	!LO:LB:g=original	!	!
=58-	=58-	=58-	=58-	=58-	=58-	=58-	=58-	=58-
1.G	.	1.G	.	2g\	0.r	8b/	8dd\	.
.	.	.	.	.	.	8a/	8cc\	.
.	.	.	.	.	.	8b/	8dd\	.
.	.	.	.	.	.	8cc\	8ee\	.
.	.	.	.	2g\	.	4b/	4dd\	.
.	.	.	.	.	.	4cc\	4ee\	.
!	!	!	!	!	!	!LO:TX:t=P:problem:kreska pseudotaktowa	!	!
.	.	.	.	2g\	.	2b/	2dd\	.
=59-	=59-	=59-	=59-	=59-	=59-	=59-	=59-	=59-
1.C	.	1.C	.	4e\	.	4cc\	1cc	0.r
.	.	.	.	4c/	.	4ee\	.	.
.	.	.	.	4e\	.	4.ee\	.	.
.	.	.	.	4c/	.	.	.	.
.	.	.	.	.	.	8dd\	.	.
.	.	.	.	4e\	.	8cc\	2r	.
.	.	.	.	.	.	8dd\	.	.
!	!	!	!	!LO:TX:t=P:problem:kreska pseudotaktowa	!	!	!	!
.	.	.	.	4g\	.	4ee\	.	.
=60-	=60-	=60-	=60-	=60-	=60-	=60-	=60-	=60-
1.F	.	1.F	.	4fny\	1.r	1a	00.r	.
.	.	.	.	4a\	.	.	.	.
.	.	.	.	2a\	.	.	.	.
.	.	.	.	2a\	.	2r	.	.
=61-	=61-	=61-	=61-	=61-	=61-	=61-	=61-	=61-
1.D	#	1.D	#	4f#X\	2dd\	00.r	.	0.r
.	.	.	.	4d\	.	.	.	.
.	.	.	.	4f#X\	2dd\	.	.	.
.	.	.	.	4d\	.	.	.	.
.	.	.	.	4f#X\	2dd\	.	.	.
.	.	.	.	4a\	.	.	.	.
=62-	=62-	=62-	=62-	=62-	=62-	=62-	=62-	=62-
1.G	.	1.G	.	1g	4b\	.	.	.
.	.	.	.	.	4g/	.	.	.
.	.	.	.	.	4b\	.	.	.
.	.	.	.	.	4g/	.	.	.
!	!	!	!	!LO:TX:t=P:problem:kreska pseudotaktowa	!	!	!	!
.	.	.	.	2r	4b\	.	.	.
.	.	.	.	.	4dd\	.	.	.
=63-	=63-	=63-	=63-	=63-	=63-	=63-	=63-	=63-
1.C	.	1.C	.	4r	4cc\	.	.	0.r
.	.	.	.	4g\	4ee\	.	.	.
.	.	.	.	4.g\	2ee\	.	.	.
.	.	.	.	8fny\	.	.	.	.
.	.	.	.	8e\	2ee\	.	.	.
.	.	.	.	8f\	.	.	.	.
.	.	.	.	4g\	.	.	.	.
*	*	*	*	*	*custos:cc#	*	*	*
!	!	!	!	!	!LO:LB:g=original	!	!	!
=64-	=64-	=64-	=64-	=64-	=64-	=64-	=64-	=64-
1.AA	#	1.AA	#	1a	4cc#X\	.	2aa\	.
.	.	.	.	.	4a\	.	.	.
.	.	.	.	.	4cc#X\	.	2aa\	.
.	.	.	.	.	4a\	.	.	.
.	.	.	.	2r	4cc#X\	.	2aa\	.
.	.	.	.	.	4ee\	.	.	.
*	*	*	*	*custos:f#	*	*	*	*
!	!	!	!	!LO:LB:g=original	!	!	!	!
=65-	=65-	=65-	=65-	=65-	=65-	=65-	=65-	=65-
1.D	#	1.D	#	4r	1dd	1.r	4ff#X\	0.r
.	.	.	.	4f#X\	.	.	4dd\	.
.	.	.	.	4.f#\	.	.	4ff#X\	.
.	.	.	.	.	.	.	4dd\	.
.	.	.	.	8e\	.	.	.	.
!	!	!	!	!	!LO:TX:t=P:problem:kreska pseudotaktowa	!	!	!
.	.	.	.	8d\	2r	.	4ff#X\	.
.	.	.	.	8e\	.	.	.	.
.	.	.	.	4f#X\	.	.	4aa\	.
=66-	=66-	=66-	=66-	=66-	=66-	=66-	=66-	=66-
1.GG	.	1.GG	.	1B	4r	4r	1gg	.
.	.	.	.	.	4b\	4dd\	.	.
.	.	.	.	.	4.b\	4.dd\	.	.
.	.	.	.	.	8a\	8cc\	.	.
.	.	.	.	2r	8g/	8b/	2r	.
.	.	.	.	.	8a\	8cc\	.	.
.	.	.	.	.	4b\	4dd\	.	.
=67-	=67-	=67-	=67-	=67-	=67-	=67-	=67-	=67-
1.E	6	1.E	6	0.r	1e	4g/	4r	0.r
.	.	.	.	.	.	4ee\	4gg\	.
.	.	.	.	.	.	4.ee\	4.gg\	.
.	.	.	.	.	.	8dd\	8ffny\	.
.	.	.	.	.	2r	8cc\	8ee\	.
.	.	.	.	.	.	8dd\	8ff\	.
.	.	.	.	.	.	4ee\	4gg\	.
*	*	*	*	*	*	*	*custos:cc	*
!	!	!	!	!	!	!	!LO:LB:g=original	!
=68-	=68-	=68-	=68-	=68-	=68-	=68-	=68-	=68-
2A\	.	2A\	.	.	0.r	4a/	4cc\	.
.	.	.	.	.	.	4cc\	4ee\	.
2AA/	.	2AA/	.	.	.	4.cc\	4.ee\	.
.	.	.	.	.	.	8b/	8dd\	.
2C/	6	2C/	6	.	.	8a/	8cc\	.
.	.	.	.	.	.	8b/	8dd\	.
.	.	.	.	.	.	4cc\	4ee\	.
*	*	*	*	*	*	*custos:g#	*	*
!	!	!	!	!	!	!LO:LB:g=original	!	!
=69-	=69-	=69-	=69-	=69-	=69-	=69-	=69-	=69-
1.E	#	1.E	#	2e\	.	8g#X/	8bny/	0.r
.	.	.	.	.	.	8fny/	8a/	.
.	.	.	.	.	.	8g#/	8b/	.
.	.	.	.	.	.	8a/	8cc\	.
.	.	.	.	2e\	.	4g#/	4b/	.
.	.	.	.	.	.	4a/	4cc\	.
.	.	.	.	2e\	.	2g#X/	2b/	.
=70-	=70-	=70-	=70-	=70-	=70-	=70-	=70-	=70-
1.AA	#	1.AA	#	4c#X/	2a\	1a	1a	.
.	.	.	.	4A/	.	.	.	.
.	.	.	.	4c#X/	2a\	.	.	.
.	.	.	.	4A/	.	.	.	.
.	.	.	.	4c#X/	2a\	2r	2r	.
.	.	.	.	4e\	.	.	.	.
*	*	*	*	*custos:d	*	*	*	*
!	!	!	!	!LO:LB:g=original	!	!	!	!
=71-	=71-	=71-	=71-	=71-	=71-	=71-	=71-	=71-
1.D	#	1.D	#	4d\	4f#X/	00.r	00.r	0.r
.	.	.	.	4f#X\	4d/	.	.	.
.	.	.	.	4.f#\	4f#X/	.	.	.
.	.	.	.	.	4d/	.	.	.
.	.	.	.	8e\	.	.	.	.
.	.	.	.	8d\	4f-X/	.	.	.
.	.	.	.	8e\	.	.	.	.
.	.	.	.	4f#X\	4a\	.	.	.
=72-	=72-	=72-	=72-	=72-	=72-	=72-	=72-	=72-
2GG/	.	2GG/	.	1B	4g/	.	.	.
.	.	.	.	.	4b\	.	.	.
2G\	.	2G\	.	.	4.b\	.	.	.
.	.	.	.	.	8a\	.	.	.
2E\	.	2E\	.	2r	8g/	.	.	.
.	.	.	.	.	8a\	.	.	.
.	.	.	.	.	4b\	.	.	.
*	*	*	*	*	*custos:f#	*	*	*
!	!	!	!	!	!LO:LB:g=original	!	!	!
=73-	=73-	=73-	=73-	=73-	=73-	=73-	=73-	=73-
1D	#	1D	#	1.r	4f#X/	.	.	0.r
.	.	.	.	.	4dd\	.	.	.
.	.	.	.	.	4.dd\	.	.	.
.	.	.	.	.	8ccny\	.	.	.
2G\	.	2G\	.	.	8b\	.	.	.
.	.	.	.	.	8cc\	.	.	.
.	.	.	.	.	4dd\	.	.	.
=74-	=74-	=74-	=74-	=74-	=74-	=74-	=74-	=74-
1.F#X	.	1.F#X	.	4r	4a\	.	.	.
.	.	.	.	4f#X\	4a\	.	.	.
.	.	.	.	4.f#\	4.a\	.	.	.
.	.	.	.	8e\	8g/	.	.	.
.	.	.	.	8d\	8f#X/	.	.	.
.	.	.	.	8e\	8g/	.	.	.
.	.	.	.	4f#X\	4a\	.	.	.
*	*	*	*	*custos:c#	*	*	*	*
!	!	!	!	!LO:LB:g=original	!	!	!	!
=75-	=75-	=75-	=75-	=75-	=75-	=75-	=75-	=75-
1.A	#	1.A	#	8c#X/	8e/	1.r	2aa\	0.r
.	.	.	.	8B/	8d/	.	.	.
.	.	.	.	8c#X/	8e/	.	.	.
.	.	.	.	8d\	8f#X/	.	.	.
.	.	.	.	4c#X/	4e/	.	2aa\	.
.	.	.	.	4d\	4f#/	.	.	.
.	.	.	.	2c#X/	2e/	.	2aa\	.
=76-	=76-	=76-	=76-	=76-	=76-	=76-	=76-	=76-
1.D	#	1.D	#	1d	1d	2dd\	4ff#X\	.
.	.	.	.	.	.	.	4dd\	.
.	.	.	.	.	.	2dd\	4ff#X\	.
.	.	.	.	.	.	.	4dd\	.
!	!	!	!	!	!LO:TX:t=P:problem:kreska pseudotaktowa	!	!	!
.	.	.	.	2r	2r	2dd\	4ff#X\	.
.	.	.	.	.	.	.	4aa\	.
=77-	=77-	=77-	=77-	=77-	=77-	=77-	=77-	=77-
1.GG	.	1.GG	.	0.r	2g/	4b/	1gg	0.r
.	.	.	.	.	.	4gny/	.	.
.	.	.	.	.	2g/	4b/	.	.
.	.	.	.	.	.	4g/	.	.
!	!	!	!	!	!	!	!LO:TX:t=P:problem:kreska pseudotaktowa	!
.	.	.	.	.	2g/	4b/	2r	.
.	.	.	.	.	.	4dd\	.	.
=78-	=78-	=78-	=78-	=78-	=78-	=78-	=78-	=78-
1.C	.	1.C	.	.	4e/	4cc\	4r	.
.	.	.	.	.	4c/	4ee\	4gg\	.
.	.	.	.	.	4e/	4.ee\	4.gg\	.
.	.	.	.	.	4c/	.	.	.
.	.	.	.	.	.	8dd\	8ffny\	.
.	.	.	.	.	4e/	8cc\	8ee\	.
.	.	.	.	.	.	8dd\	8ff\	.
.	.	.	.	.	4e/	4ee\	4gg\	.
=79-	=79-	=79-	=79-	=79-	=79-	=79-	=79-	=79-
1.D	#	1.D	#	2d\	4f#X/	4a/	4dd\	0.r
.	.	.	.	.	4a\	4f#X/	4ff#X\	.
.	.	.	.	2d\	4.a\	4a/	4.ff#\	.
.	.	.	.	.	.	4f#X/	.	.
.	.	.	.	.	8g/	.	8ee\	.
*	*	*	*	*	*custos:f#	*	*	*
!	!	!	!	!	!LO:LB:g=original	!	!	!
.	.	.	.	2d\	8f#X/	4a/	2dd\	.
.	.	.	.	.	8g/	.	.	.
!	!	!	!	!	!LO:TX:t=P:problem:kreska pseudotaktowa	!	!	!
.	.	.	.	.	4a\	4f#X/	.	.
*custos:GG	*	*custos:GG	*	*	*	*	*custos:dd	*
!LO:LB:g=original	!	!LO:LB:g=original	!	!	!	!	!LO:LB:g=original	!
=80-	=80-	=80-	=80-	=80-	=80-	=80-	=80-	=80-
1.GG	.	1.GG	.	4B/	4g/	1g	4dd\	.
.	.	.	.	4G/	4b\	.	4b/	.
.	.	.	.	4B/	4.b\	.	4dd\	.
.	.	.	.	4G/	.	.	4b/	.
.	.	.	.	.	8a\	.	.	.
.	.	.	.	4B/	8g/	2r	4dd\	.
.	.	.	.	.	8a\	.	.	.
.	.	.	.	4d\	4b\	.	4b/	.
=81-	=81-	=81-	=81-	=81-	=81-	=81-	=81-	=81-
1.C	5:6	1.C	5:6	1cny	1e	4r	4cc\	0.r
.	.	.	.	.	.	4cc\	4ee\	.
.	.	.	.	.	.	4.cc\	4.ee\	.
.	.	.	.	.	.	8b/	8dd\	.
*	*	*	*	*	*	*custos:a	*	*
!	!	!	!	!	!	!LO:PB:g=original	!	!
.	.	.	.	2r	2r	8a/	8cc\	.
.	.	.	.	.	.	8b/	8dd\	.
.	.	.	.	.	.	4cc\	4ee\	.
=82-	=82-	=82-	=82-	=82-	=82-	=82-	=82-	=82-
1.D	#	1.D	#	1.r	1.r	8f#X/	8a/	.
.	.	.	.	.	.	8e/	8g/	.
.	.	.	.	.	.	8f#/	8a/	.
.	.	.	.	.	.	8g/	8b/	.
.	.	.	.	.	.	4f#X/	4a/	.
.	.	.	.	.	.	4g/	4b/	.
.	.	.	.	.	.	2f#X/	2a/	.
=83-	=83-	=83-	=83-	=83-	=83-	=83-	=83-	=83-
1.GG	5:6	1.GG	5:6	4r	4r	1g	1g	0.r
.	.	.	.	4g\	4b\	.	.	.
.	.	.	.	4.g\	4.b\	.	.	.
.	.	.	.	8fny\	8a\	.	.	.
.	.	.	.	8e\	8g/	2r	2r	.
.	.	.	.	8f\	8a\	.	.	.
.	.	.	.	4g\	4b\	.	.	.
=84-	=84-	=84-	=84-	=84-	=84-	=84-	=84-	=84-
1.AA	#	1.AA	#	8c#X/	8e/	1.r	1.r	.
.	.	.	.	8B/	8d/	.	.	.
.	.	.	.	8c#X/	8e/	.	.	.
.	.	.	.	8d\	8fny/	.	.	.
.	.	.	.	4c#X/	4e/	.	.	.
.	.	.	.	4d\	4f#X/	.	.	.
.	.	.	.	2c#X/	2e/	.	.	.
=85-	=85-	=85-	=85-	=85-	=85-	=85-	=85-	=85-
2.D/	#	2.D/	#	1d	1d	8ff#X\	8aa\	0.r
.	.	.	.	.	.	8ee\	8gg\	.
.	.	.	.	.	.	8ff#\	8aa\	.
.	.	.	.	.	.	8gg\	8bb\	.
.	.	.	.	.	.	4ff#X\	4aa\	.
4GG/	#	4GG/	#	.	.	4gg\	4bb\	.
2D/	#	2D/	#	2r	2r	2ff#X\	2aa\	.
*	*	*	*	*custos:b	*	*	*	*
!	!	!	!	!LO:LB:g=original	!	!	!	!
=86-	=86-	=86-	=86-	=86-	=86-	=86-	=86-	=86-
2.G\	.	2.G\	.	8b\	8dd\	1gg	1gg	.
.	.	.	.	8a\	8cc\	.	.	.
.	.	.	.	8b\	8dd\	.	.	.
.	.	.	.	8cc\	8ee\	.	.	.
.	.	.	.	4b\	4dd\	.	.	.
4C/	.	4C/	.	4cc\	4ee\	.	.	.
!	!	!	!	!	!	!LO:TX:t=P:problem:kreska pseudotaktowa	!LO:TX:t=P:problem:kreska pseudotaktowa	!
2G\	.	2G\	.	2b\	2dd\	2r	2r	.
*	*	*	*	*	*custos:cc	*	*	*
!	!	!	!	!	!LO:LB:g=original	!	!	!
=87-	=87-	=87-	=87-	=87-	=87-	=87-	=87-	=87-
2.C/	.	2.C/	.	1cc	1cc	8ee\	8gg\	0.r
.	.	.	.	.	.	8dd\	8ffny\	.
.	.	.	.	.	.	8ee\	8gg\	.
.	.	.	.	.	.	8ffny\	8aa\	.
.	.	.	.	.	.	4ee\	4gg\	.
4FF/	.	4FF/	.	.	.	4ff\	4aa\	.
2C/	.	2C/	.	2r	2r	2ee\	2gg\	.
=88-	=88-	=88-	=88-	=88-	=88-	=88-	=88-	=88-
1.Fny	.	1.Fny	.	1.r	2a\	1ff	1ff	.
.	.	.	.	.	2a\	.	.	.
.	.	.	.	.	2a\	2r	2r	.
=89-	=89-	=89-	=89-	=89-	=89-	=89-	=89-	=89-
1.D	#	1.D	#	4r	4f#X/	2dd\	1.r	0.r
.	.	.	.	4f#X\	4d/	.	.	.
.	.	.	.	4.f#\	4f#X/	2dd\	.	.
.	.	.	.	.	4d/	.	.	.
.	.	.	.	8e\	.	.	.	.
.	.	.	.	8d\	4f#X/	2dd\	.	.
.	.	.	.	8e\	.	.	.	.
.	.	.	.	4f#X\	4a\	.	.	.
=90-	=90-	=90-	=90-	=90-	=90-	=90-	=90-	=90-
1.GG	.	1.GG	.	1g	1b	4b/	2gg\	.
.	.	.	.	.	.	4g/	.	.
.	.	.	.	.	.	4b/	2gg\	.
.	.	.	.	.	.	4g/	.	.
.	.	.	.	2r	2r	4b/	2gg\	.
.	.	.	.	.	.	4dd\	.	.
*	*	*	*	*	*	*custos:cc	*custos:ee	*
!	!	!	!	!	!	!LO:LB:g=original	!LO:LB:g=original	!
=91-	=91-	=91-	=91-	=91-	=91-	=91-	=91-	=91-
1.C	.	1.C	.	2cny/	1.r	4cc\	4ee\	0.r
.	.	.	.	.	.	4ee\	4cc\	.
.	.	.	.	2c/	.	4.ee\	4ee\	.
.	.	.	.	.	.	.	4cc\	.
.	.	.	.	.	.	8dd\	.	.
.	.	.	.	2c/	.	8cc\	4ee\	.
.	.	.	.	.	.	8dd\	.	.
.	.	.	.	.	.	4ee\	4gg\	.
=92-	=92-	=92-	=92-	=92-	=92-	=92-	=92-	=92-
1.D	#	1.D	#	4A/	4r	1a	1ff#X	.
.	.	.	.	4F#X/	4f#X/	.	.	.
.	.	.	.	4A/	4.f#/	.	.	.
.	.	.	.	4F#X/	.	.	.	.
.	.	.	.	.	8e/	.	.	.
.	.	.	.	4A/	8d/	2r	2r	.
.	.	.	.	.	8e/	.	.	.
!	!	!	!	!LO:TX:t=P:problem:kreska pseudotaktowa	!	!	!	!
.	.	.	.	4d\	4f#X/	.	.	.
=93-	=93-	=93-	=93-	=93-	=93-	=93-	=93-	=93-
1.GG	.	1.GG	.	4B/	1g	1.r	4r	0.r
.	.	.	.	4d\	.	.	4bb\	.
.	.	.	.	4.d\	.	.	4.bb\	.
.	.	.	.	8c/	.	.	8aa\	.
.	.	.	.	8B/	2r	.	8gg\	.
.	.	.	.	8c/	.	.	8aa\	.
.	.	.	.	4d\	.	.	4bb\	.
=94-	=94-	=94-	=94-	=94-	=94-	=94-	=94-	=94-
1.C	5:6	1.C	5:6	1G	4r	4r	2ee\	.
.	.	.	.	.	4cc\	4ee\	.	.
*	*	*	*	*	*	*	*col	*
.	.	.	.	.	4.cc\	4.ee\	1ccc	.
.	.	.	.	.	8b\	8dd\	.	.
.	.	.	.	2e\	8a\	8cc\	.	.
.	.	.	.	.	8b\	8dd\	.	.
.	.	.	.	.	4cc\	4ee\	.	.
*	*	*	*	*	*	*	*Xcol	*
=95-	=95-	=95-	=95-	=95-	=95-	=95-	=95-	=95-
1D	7 #	1D	7 #	1d	1f#X	1a	1ccc	0.r
2GG/	.	2GG/	.	2d\	2g/	2b/	2bb\	.
*	*	*	*	*custos:d	*custos:g	*	*	*
!	!	!	!	!LO:LB:g=original	!LO:LB:g=original	!	!	!
=96-	=96-	=96-	=96-	=96-	=96-	=96-	=96-	=96-
1.D	4#r	1.D	4#r	1.d	1g	1.dd	1.aa	.
.	.	.	.	.	2f#X/	.	.	.
=97-	=97-	=97-	=97-	=97-	=97-	=97-	=97-	=97-
1.GG	.	1.GG	.	1.d	1.g	1.b	1.gg	1.r
*custos:GG	*	*custos:GG	*	*	*	*	*	*
!LO:LB:g=original	!	!LO:LB:g=original	!	!	!	!	!	!
=-	=-	=-	=-	=-	=-	=-	=-	=-
*M2/2	*	*M2/2	*	*M2/2	*M2/2	*M2/2	*M2/2	*M2/2
*met(C|)	*	*met(C|)	*	*met(C|)	*met(C|)	*met(C|)	*met(C|)	*met(C|)
!LO:TX:b:t=adagio.	!	!LO:TX:b:t=adagio.	!	!LO:TX:b:t=adagio.	!LO:TX:b:t=adagio.	!LO:TX:b:t=adagio.	!LO:TX:b:t=adagio.	!LO:TX:b:t=adagio.
4GG/	.	4GG/	.	4B/	4g/	4b/	4dd\	4GG/
4AA/	.	4AA/	.	4c/	4e/	4a/	4cc\	4AA/
4BB/	6	4BB/	6	4G/	4d/	8g/	8b/	4BB/
.	.	.	.	.	.	4b/	4g/	.
4E\	.	4E\	.	4G/	4e/	.	.	4E\
.	.	.	.	.	.	8g/	4ee\	.
=98-	=98-	=98-	=98-	=98-	=98-	=98-	=98-	=98-
4AA/	.	4AA/	.	4A/	4c/	4.cc\	.	4AA/
.	.	.	.	.	.	.	4a/	.
4D/	7:6	4D/	7:6	4A/	4d/	.	.	4D/
.	.	.	.	.	.	8f#X/	4dd\	.
4GG/	.	4GG/	.	4G/	4Bny/	4.b/	.	4GG/
.	.	.	.	.	.	.	4g/	.
4C/	7:6	4C/	7:6	4G/	4c/	.	.	4C/
.	.	.	.	.	.	8e/	4cc\	.
=99-	=99-	=99-	=99-	=99-	=99-	=99-	=99-	=99-
4D/	7 #	4D/	7 #	4d\	4A/	4f#X/	.	4D/
.	.	.	.	.	.	.	8b-X/	.
4GG/	4-	4GG/	4-	4d\	8.B-X/	2g/	8b-/	4GG/
.	.	.	.	.	.	.	8a/	.
.	.	.	.	.	16c/	.	.	.
2DD/	#	2DD/	#	8d\	2d/	.	2a/	2DD/
.	.	.	.	16c/	.	.	.	.
.	.	.	.	16B/	.	.	.	.
.	.	.	.	4A/	.	4f#X/	.	.
=100-	=100-	=100-	=100-	=100-	=100-	=100-	=100-	=100-
!LO:N:vis=0	!	!LO:N:vis=0	!	!LO:N:vis=0	!LO:N:vis=0	!LO:N:vis=0	!	!LO:N:vis=0
0.GG;	.	0.GG;	.	0.B;	0.d;	0.g;	0.g;	0.GG;
==	==	==	==	==	==	==	==	==
*-	*-	*-	*-	*-	*-	*-	*-	*-
!!!system-decoration: s1[(s2,s3,s4,s5)]s6,s7
!!!ENC: Filip Voros
!!!END: 2022-11-16
!!!ENC: Natalia Wrzos
!!!END: 2022-12-02
!!!YEC: Copyright 2022 Narodowy Instytut Fryderyka Chopina (https://polishscores.org)
!!!YEM: License CC-BY-4.0 (https://creativecommons.org/licenses/by/4.0)
